Dominus_Dark_Funeral/22/categories/applications-education-science.svg

<svg xmlns="http://www.w3.org/2000/svg" width="24" height="24"><path d="M9.8.9c-1.33 0-2.56.6-3.38 1.62a3.6 3.6 0 0 0-3.3.66 3.64 3.64 0 0 0-1.15 1.67A2.89 2.89 0 1 0 5.13 9.6a3.5 3.5 0 0 0 2.36-.65A4.36 4.36 0 0 0 12 9a4.31 4.31 0 0 0 4.51-.06 3.58 3.58 0 0 0 2.36.65 2.88 2.88 0 1 0 3.17-4.75 3.64 3.64 0 0 0-4.46-2.33A4.32 4.32 0 0 0 12 1.5 4.3 4.3 0 0 0 9.8.9zm2.2 9.14a7.63 7.63 0 0 1-4.75.36 5.88 5.88 0 0 1 1.82 3.55h5.86a6 6 0 0 1 1.82-3.55 7.6 7.6 0 0 1-4.75-.36zm-4.03 4.5a.75.75 0 0 0 0 1.5h8.06a.75.75 0 0 0 0-1.5zm.74 2.28a8.27 8.27 0 0 1-.73 1.81l-.28.51a10.17 10.17 0 0 1 8.6 0l-.28-.5a8.3 8.3 0 0 1-.72-1.82zm3.3 2.2c-1.26 0-2.51.43-3.53 1.28a3.25 3.25 0 0 0-3.96 1l-.2.26a2.6 2.6 0 0 0-3.06.44.64.64 0 0 0 .45 1.1H22.3a.64.64 0 0 0 .45-1.1 2.6 2.6 0 0 0-3.06-.44l-.2-.26a3.26 3.26 0 0 0-3.96-1A5.47 5.47 0 0 0 12 19.02z" fill="#e6e6e6"/></svg>

<?xml version="1.0" encoding="UTF-8" standalone="no"?>
<svg
   xmlns:dc="http://purl.org/dc/elements/1.1/"
   xmlns:cc="http://creativecommons.org/ns#"
   xmlns:rdf="http://www.w3.org/1999/02/22-rdf-syntax-ns#"
   xmlns:svg="http://www.w3.org/2000/svg"
   xmlns="http://www.w3.org/2000/svg"
   xmlns:sodipodi="http://sodipodi.sourceforge.net/DTD/sodipodi-0.dtd"
   xmlns:inkscape="http://www.inkscape.org/namespaces/inkscape"
   width="24"
   height="24"
   version="1.1"
   id="svg4"
   sodipodi:docname="applications-education-science.svg"
   inkscape:version="0.92.4 (5da689c313, 2019-01-14)">
  <metadata
     id="metadata10">
    <rdf:RDF>
      <cc:Work
         rdf:about="">
        <dc:format>image/svg+xml</dc:format>
        <dc:type
           rdf:resource="http://purl.org/dc/dcmitype/StillImage" />
        <dc:title></dc:title>
      </cc:Work>
    </rdf:RDF>
  </metadata>
  <defs
     id="defs8" />
  <sodipodi:namedview
     pagecolor="#ffffff"
     bordercolor="#666666"
     borderopacity="1"
     objecttolerance="10"
     gridtolerance="10"
     guidetolerance="10"
     inkscape:pageopacity="0"
     inkscape:pageshadow="2"
     inkscape:window-width="1142"
     inkscape:window-height="480"
     id="namedview6"
     showgrid="false"
     inkscape:zoom="9.8333333"
     inkscape:cx="1.2711864"
     inkscape:cy="12"
     inkscape:window-x="0"
     inkscape:window-y="25"
     inkscape:window-maximized="0"
     inkscape:current-layer="svg4" />
  <path
     d="M 9.8,0.9 C 8.47,0.9 7.24,1.5 6.42,2.52 A 3.6,3.6 0 0 0 3.12,3.18 3.64,3.64 0 0 0 1.97,4.85 2.89,2.89 0 1 0 5.13,9.6 3.5,3.5 0 0 0 7.49,8.95 4.36,4.36 0 0 0 12,9 4.31,4.31 0 0 0 16.51,8.94 3.58,3.58 0 0 0 18.87,9.59 2.88,2.88 0 1 0 22.04,4.84 3.64,3.64 0 0 0 17.58,2.51 4.32,4.32 0 0 0 12,1.5 4.3,4.3 0 0 0 9.8,0.9 Z m 2.2,9.14 a 7.63,7.63 0 0 1 -4.75,0.36 5.88,5.88 0 0 1 1.82,3.55 h 5.86 A 6,6 0 0 1 16.75,10.4 7.6,7.6 0 0 1 12,10.04 Z m -4.03,4.5 a 0.75,0.75 0 0 0 0,1.5 h 8.06 a 0.75,0.75 0 0 0 0,-1.5 z m 0.74,2.28 A 8.27,8.27 0 0 1 7.98,18.63 L 7.7,19.14 a 10.17,10.17 0 0 1 8.6,0 l -0.28,-0.5 A 8.3,8.3 0 0 1 15.3,16.82 Z m 3.3,2.2 c -1.26,0 -2.51,0.43 -3.53,1.28 a 3.25,3.25 0 0 0 -3.96,1 l -0.2,0.26 A 2.6,2.6 0 0 0 1.26,22 0.64,0.64 0 0 0 1.71,23.1 H 22.3 A 0.64,0.64 0 0 0 22.75,22 2.6,2.6 0 0 0 19.69,21.56 L 19.49,21.3 A 3.26,3.26 0 0 0 15.53,20.3 5.47,5.47 0 0 0 12,19.02 Z"
     id="path2"
     inkscape:connector-curvature="0"
     style="fill:#e6e6e6" />
</svg>
